X: 370
T: A Stor Mo Chroi
R: waltz
M: 3/4
K: Aminor
(c3/2d/)|e3/2e/ e2de|(dc) (3(AGE) G2-|
G4A3/2c/|d3/2e/(dcAG)|(E3/2D/)(EG) A2|
[1A4:|2 A4-A A|(3(AG)A (3cde g3/2a/|
A3A (3(AG)A|(3(cde) a3b|(3(age) g3(a/g/)|
e3/2d/ e3d/e/|(dc) (3(AG)E G2-|
G2ed (3cAG|(E3D) (EG)|A2A4||

